modal/icons/tumblr.svg

<svg viewBox="0 0 1024 1024" xmlns="http://www.w3.org/2000/svg">
<path d="m702.77,799.58c-22.21,23.72-73.68,39.82-119.77,40.58h-5.06c-154.84,0-188.47-113.84-188.47-180.29v-184.61h-61a12.79,12.79 0 0,1 -12.79-12.79v-87.18a21.72,21.72 0 0,1 14.47-20.46c79.49-28 104.42-97.37 108.11-150.1 1-14.09 8.37-20.92 20.6-20.92h90.92a12.79,12.79 0 0,1 12.79,12.79v147.65h106.43a12.79,12.79 0 0,1 12.8,12.75v104.77a12.79,12.79 0 0,1 -12.8,12.78h-106.92v170.73c0,42.87 28.25,54.7 45.7,54.7 16.74-.4 33.22-5.5 41.48-8.82 6.13-2.46 11.52-4.09 16.34-2.88 4.49,1.12 7.44,4.3 9.43,10.1l28.21,82.4c2.29,6.6 4.26,13.75-.47,18.8z" fill="#39475d"/>
</svg>

<svg xmlns="http://www.w3.org/2000/svg" viewBox="0 0 1024 1024">
<path fill="#39475d" d="M702.77,799.58C680.56,823.3,629.09,839.4,583,840.16l-5.06,0c-154.84,0-188.47-113.84-188.47-180.29V475.26h-61a12.79,12.79,0,0,1-12.79-12.79V375.29a21.72,21.72,0,0,1,14.47-20.46c79.49-28,104.42-97.37,108.11-150.1,1-14.09,8.37-20.92,20.6-20.92h90.92a12.79,12.79,0,0,1,12.79,12.79V344.25H669A12.79,12.79,0,0,1,681.8,357V461.77A12.79,12.79,0,0,1,669,474.55H562.08V645.28c0,42.87,28.25,54.7,45.7,54.7,16.74-.4,33.22-5.5,41.48-8.82,6.13-2.46,11.52-4.09,16.34-2.88,4.49,1.12,7.44,4.3,9.43,10.1l28.21,82.4C705.53,787.38,707.5,794.53,702.77,799.58Z"/></svg>
